X:130
T: Braut Bondeli (2-32) S. 101
N: P0905
O: Lothringen
S: PINCK, Louis: Verklingende Weisen, Bd 2, Metz 1928]
R: Magd als Knigstochter, Beischlaf mit dem Bruder]
M: 3/8
L: 1/8
K: F
F | FAA | AGF | G2A | Gz
A | AGF | G2c | BAG | Fz
A | c2A | cdc | BAG | Fz
F | AAB | c2A | GAG | Fz

@@@ Tune index: 7680
